public/details.svg

<?xml version="1.0" encoding="iso-8859-1"?>
<!-- Generator: Adobe Illustrator 18.1.1, SVG Export Plug-In . SVG Version: 6.00 Build 0)  -->
<svg version="1.1" id="Capa_1" xmlns="http://www.w3.org/2000/svg" xmlns:xlink="http://www.w3.org/1999/xlink" x="0px" y="0px"
	 viewBox="0 0 18.453 18.453" style="enable-background:new 0 0 18.453 18.453;" xml:space="preserve">
<g>
	<g>
		<rect x="2.711" y="4.058" style="fill:#030104;" width="8.23" height="1.334"/>
		<path style="fill:#030104;" d="M14.972,14.088c0.638-1.127,0.453-2.563-0.475-3.49c-0.549-0.549-1.279-0.852-2.058-0.852
			c-0.779,0-1.51,0.303-2.059,0.852s-0.852,1.279-0.852,2.059c0,0.777,0.303,1.508,0.852,2.059c0.549,0.547,1.279,0.85,2.057,0.85
			c0.507,0,0.998-0.129,1.434-0.375l3.262,3.262l1.101-1.102L14.972,14.088z M13.664,13.881c-0.652,0.652-1.796,0.652-2.448,0
			c-0.675-0.676-0.675-1.773,0-2.449c0.326-0.326,0.762-0.506,1.225-0.506s0.897,0.18,1.224,0.506s0.507,0.762,0.507,1.225
			S13.991,13.554,13.664,13.881z"/>
		<path style="fill:#030104;" d="M13.332,16.3H1.857c-0.182,0-0.329-0.148-0.329-0.328V1.638c0-0.182,0.147-0.329,0.329-0.329
			h11.475c0.182,0,0.328,0.147,0.328,0.329V8.95c0.475,0.104,0.918,0.307,1.31,0.597V1.638C14.97,0.735,14.236,0,13.332,0H1.857
			C0.954,0,0.219,0.735,0.219,1.638v14.334c0,0.902,0.735,1.637,1.638,1.637h11.475c0.685,0,1.009-0.162,1.253-0.76l-0.594-0.594
			C13.772,16.347,13.426,16.3,13.332,16.3z"/>
		<rect x="2.711" y="7.818" style="fill:#1f2937;" width="8.23" height="1.334"/>
	</g>
</g>
<g>
</g>
<g>
</g>
<g>
</g>
<g>
</g>
<g>
</g>
<g>
</g>
<g>
</g>
<g>
</g>
<g>
</g>
<g>
</g>
<g>
</g>
<g>
</g>
<g>
</g>
<g>
</g>
<g>
</g>
</svg>

<?xml version="1.0" standalone="no"?>
<!DOCTYPE svg PUBLIC "-//W3C//DTD SVG 1.0//EN" "http://www.w3.org/TR/2001/REC-SVG-20010904/DTD/svg10.dtd">
<svg xmlns="http://www.w3.org/2000/svg" xmlns:xlink="http://www.w3.org/1999/xlink" id="body_1" width="256" height="256">

<g transform="matrix(14.22222 0 0 14.22222 0 0)">
	<g transform="matrix(0.9994448 0 0 0.9756097 0 0)">
	</g>
    <path transform="matrix(0.9994448 0 0 0.9756097 0 0)"  d="M0 0L1024 0L1024 768L0 768L0 0z" stroke="none" fill="none" />
	<g transform="matrix(0.9994448 0 0 0.9756097 0 0)">
	</g>
    <path transform="matrix(0.9994448 0 0 0.9756097 0 0)"  d="M2.711 4.058L10.941 4.058L10.941 5.392L2.711 5.392L2.711 4.058z" stroke="none" fill="#000000" fill-rule="nonzero" />
	<g transform="matrix(0.9994448 0 0 0.9756097 0 0)">
	</g>
    <path transform="matrix(0.9994448 0 0 0.9756097 0 0)"  d="M14.972 14.088C 15.61 12.961 15.425 11.525 14.497 10.598C 13.948 10.049 13.218 9.746 12.439 9.746C 11.66 9.746 10.929 10.049 10.38 10.598C 9.830999 11.147 9.527999 11.877 9.527999 12.657C 9.527999 13.434 9.830999 14.165 10.38 14.716C 10.929 15.263 11.659 15.566 12.437 15.566C 12.944 15.566 13.435 15.437 13.871 15.191L13.871 15.191L17.133 18.453L18.234 17.351L14.972 14.088zM13.664 13.881C 13.012 14.533 11.868 14.533 11.216 13.881C 10.541 13.205 10.541 12.108 11.216 11.432C 11.542 11.106 11.978 10.926 12.441 10.926C 12.904 10.926 13.338 11.106 13.665 11.432C 13.992 11.758 14.172 12.194 14.172 12.657C 14.172 13.12 13.991 13.554 13.664 13.881z" stroke="none" fill="#000000" fill-rule="nonzero" />
	<g transform="matrix(0.9994448 0 0 0.9756097 0 0)">
	</g>
    <path transform="matrix(0.9994448 0 0 0.9756097 0 0)"  d="M13.332 16.3L1.857 16.3C 1.675 16.3 1.528 16.152 1.528 15.972L1.528 15.972L1.528 1.638C 1.528 1.456 1.675 1.309 1.857 1.309L1.857 1.309L13.332 1.309C 13.514 1.309 13.66 1.456 13.66 1.638L13.66 1.638L13.66 8.95C 14.135 9.054 14.578 9.257 14.97 9.547L14.97 9.547L14.97 1.638C 14.97 0.735 14.236 0 13.332 0L13.332 0L1.857 0C 0.954 0 0.219 0.735 0.219 1.638L0.219 1.638L0.219 15.972C 0.219 16.874 0.954 17.609 1.857 17.609L1.857 17.609L13.332 17.609C 14.017 17.609 14.341 17.447 14.585 16.849L14.585 16.849L13.991 16.255C 13.772 16.347 13.426 16.3 13.332 16.3z" stroke="none" fill="#000000" fill-rule="nonzero" />
	<g transform="matrix(0.9994448 0 0 0.9756097 0 0)">
	</g>
    <path transform="matrix(0.9994448 0 0 0.9756097 0 0)"  d="M2.711 7.818L10.941 7.818L10.941 9.151999L2.711 9.151999L2.711 7.818z" stroke="none" fill="#000000" fill-rule="nonzero" />
</g>
</svg>
